X: 100329
M: C|
L: 1/8
K: D
uFE |\
|: (ude) |\
(fe)fg (fe)dc | (dc)de (dc)BA | (Bc)de (fd)gf | e2e2 e2(de) |
(fe)fg (fe)dc | (dc)de (dc)BA | (Bc)de (fe)ef | e2d2 d2 :|


